X:1
T:Title
%%score { ( 1 4 ) | ( 2 3 ) }
L:1/8
Q:1/4=95
M:6/8
K:F
V:1 treble nm="Grand Piano"
V:4 treble 
V:2 bass 
V:3 bass 
V:1
 CFG AAA | AGA c3 | ddd cF[DFG] | [FA]3 .[EG]3 | CFG AAA | AGA c3 | [Fd][Fd][Fd] [Fc][A,F][DFG] | %7
w: Wilbur~A.~Christy * * * * *|||||||
 [CFA]2 [EG] .[A,F]3 | .[Fc]6 | [Ac]6 | ddd cF[DFG] | [FA]3 .[EG]3 | .[Fc]6 |[M:7/8] c3 z z z2 | %14
w: |||||||
[M:3/4] f[Fe] [Fd][Fc] z [DFG] |[M:7/8] [CA]2 z z z z2 |] %16
w: ||
V:2
 [F,A,][F,A,C][F,B,C] [F,CF][F,CF][K:treble][F,CF] | [F,CF][F,B,F][F,A,F] [F,A,F]3 | %2
 [B,F][B,F][B,F][K:bass] [F,A,F][F,A,]B,, | [C,C]3 .[C,C]3 | %4
 [F,A,][F,A,C][F,B,C] [F,CF][F,CF][F,CF] | [F,CF][F,B,F][F,A,F] [F,A,F]3 | %6
 [B,,B,][B,,B,][D,B,] [F,A,]F,B,, | z2 B, .F,3 | [F,A,]F,G, A,FF, | [F,A,]F,G, .A,3 | %10
 [B,F][B,F][B,F][K:bass] [F,A,F][F,A,]B,, | [C,C]3 .[C,C]3 | [F,A,]F,G, A,[K:treble]F[F,CF] | %13
[M:7/8] F-[G,F-][A,F] [B,F]3 z |[M:3/4][K:bass] [B,,DF][C,C] .[D,B,]2 FB,, |[M:7/8] z2 B, F,,3 z |] %16
V:3
 x5[K:treble] x | x6 | x3[K:bass] x3 | x6 | x6 | x6 | x6 | C,3 z3 | x6 | x6 | x3[K:bass] x3 | x6 | %12
 x4[K:treble] x2 |[M:7/8] [F,A,] z z z z z2 |[M:3/4][K:bass] z2 z .[F,A,]3 |[M:7/8] C,3 z z z2 |] %16
V:4
 x6 | x6 | x6 | x6 | x6 | x6 | x6 | x6 | z A,B, CA[CGB] | z A,B, .C3 | x6 | x6 | z A,B, CAB | %13
[M:7/8] z B,C d3 z |[M:3/4] x6 |[M:7/8] E2- [EG] [A,F]3 z |] %16

